img/Instagram.svg

<svg width="224" height="243" viewBox="0 0 224 243" fill="none" xmlns="http://www.w3.org/2000/svg">
<path d="M3.50281 220.862L3.5 220.705V109.461C3.5 51.0096 51.9168 3.5 111.798 3.5C171.68 3.5 220.097 51.0096 220.097 109.461V220.706L220.094 220.862C219.921 230.542 211.668 238.562 201.237 238.562C190.806 238.562 182.553 230.542 182.38 220.862L182.319 217.424H178.881H178.874H175.436L175.375 220.862C175.202 230.542 166.949 238.562 156.518 238.562C146.087 238.562 137.834 230.542 137.661 220.862L137.599 217.424H134.161H134.155H130.717L130.655 220.862C130.482 230.542 122.229 238.562 111.798 238.562C101.368 238.562 93.1146 230.542 92.9416 220.862L92.8801 217.424H89.4421H89.4354H85.9974L85.9359 220.862C85.7628 230.542 77.5098 238.562 67.079 238.562C56.6483 238.562 48.3953 230.542 48.2222 220.862L48.1607 217.424H44.7227H44.716H41.278L41.2166 220.862C41.0435 230.542 32.7905 238.562 22.3597 238.562C11.9289 238.562 3.67589 230.542 3.50281 220.862Z" fill="#7BB361" stroke="#FFB8C6" stroke-width="7"/>
<path d="M181.528 119.772C181.528 120.74 181.414 121.75 181.187 122.799C180.959 123.849 180.637 124.875 180.222 125.875C179.815 126.868 179.323 127.808 178.745 128.695C178.167 129.582 177.524 130.351 176.816 131.002L175.266 130.16C175.502 129.737 175.718 129.261 175.913 128.732C176.108 128.203 176.287 127.646 176.45 127.06C176.613 126.474 176.755 125.871 176.877 125.253C177 124.634 177.101 124.02 177.183 123.41C177.272 122.791 177.337 122.193 177.378 121.615C177.419 121.037 177.439 120.496 177.439 119.992C177.439 119.707 177.431 119.398 177.415 119.064C177.398 118.73 177.362 118.397 177.305 118.063C177.256 117.729 177.179 117.412 177.073 117.111C176.967 116.802 176.82 116.529 176.633 116.293C176.454 116.049 176.226 115.858 175.95 115.719C175.681 115.573 175.356 115.5 174.973 115.5C174.599 115.5 174.277 115.601 174.009 115.805C173.748 116 173.525 116.256 173.337 116.574C173.15 116.891 173 117.249 172.886 117.648C172.78 118.047 172.699 118.45 172.642 118.856C172.585 119.255 172.544 119.638 172.52 120.004C172.503 120.37 172.495 120.679 172.495 120.932V128H168.381V121.432C168.381 121.147 168.385 120.806 168.394 120.407C168.402 120 168.389 119.577 168.357 119.137C168.333 118.698 168.28 118.262 168.198 117.831C168.125 117.392 168.003 117.001 167.832 116.659C167.669 116.317 167.445 116.041 167.161 115.829C166.876 115.609 166.518 115.5 166.086 115.5C165.72 115.5 165.411 115.601 165.159 115.805C164.915 116.008 164.707 116.273 164.536 116.598C164.373 116.916 164.243 117.278 164.146 117.685C164.056 118.083 163.987 118.486 163.938 118.893C163.897 119.292 163.873 119.674 163.865 120.041C163.857 120.399 163.853 120.696 163.853 120.932V128H159.714V113.9H161.301L162.815 117.184C163.157 116.045 163.694 115.158 164.426 114.523C165.167 113.88 166.147 113.559 167.368 113.559C168.467 113.559 169.378 113.786 170.103 114.242C170.827 114.698 171.396 115.438 171.812 116.464C172.048 116.016 172.308 115.613 172.593 115.255C172.886 114.897 173.207 114.592 173.557 114.34C173.915 114.088 174.31 113.896 174.741 113.766C175.173 113.628 175.649 113.559 176.169 113.559C177.13 113.559 177.948 113.717 178.623 114.035C179.307 114.344 179.864 114.775 180.295 115.329C180.727 115.882 181.04 116.541 181.235 117.306C181.431 118.063 181.528 118.885 181.528 119.772Z" fill="#FDFDFD"/>
<path d="M156.26 128H152.134V126.315C151.646 126.982 151.056 127.479 150.364 127.804C149.68 128.122 148.927 128.28 148.105 128.28C147.031 128.28 146.071 128.089 145.225 127.707C144.378 127.324 143.662 126.803 143.076 126.144C142.49 125.477 142.043 124.695 141.733 123.8C141.424 122.905 141.27 121.945 141.27 120.919C141.27 119.894 141.424 118.934 141.733 118.039C142.043 117.143 142.49 116.366 143.076 115.707C143.662 115.04 144.378 114.515 145.225 114.132C146.071 113.75 147.031 113.559 148.105 113.559C148.651 113.559 149.167 113.64 149.656 113.803C150.152 113.965 150.604 114.197 151.011 114.499C151.426 114.792 151.788 115.15 152.097 115.573C152.415 115.988 152.663 116.452 152.842 116.964L154.673 113.9H156.26V128ZM152.109 120.919C152.109 120.553 152.089 120.167 152.048 119.76C152.016 119.353 151.955 118.95 151.865 118.551C151.776 118.153 151.65 117.774 151.487 117.416C151.332 117.05 151.129 116.728 150.876 116.452C150.632 116.167 150.335 115.943 149.985 115.78C149.635 115.618 149.229 115.536 148.765 115.536C148.301 115.536 147.898 115.622 147.556 115.792C147.214 115.955 146.921 116.179 146.677 116.464C146.433 116.741 146.23 117.062 146.067 117.428C145.912 117.794 145.79 118.177 145.701 118.576C145.611 118.974 145.546 119.377 145.505 119.784C145.473 120.183 145.457 120.561 145.457 120.919C145.457 121.278 145.473 121.66 145.505 122.067C145.546 122.474 145.611 122.877 145.701 123.275C145.79 123.674 145.912 124.057 146.067 124.423C146.23 124.789 146.433 125.115 146.677 125.399C146.921 125.676 147.214 125.9 147.556 126.071C147.898 126.234 148.301 126.315 148.765 126.315C149.188 126.315 149.562 126.229 149.888 126.059C150.221 125.88 150.51 125.644 150.754 125.351C151.007 125.058 151.218 124.724 151.389 124.35C151.56 123.975 151.698 123.589 151.804 123.19C151.91 122.791 151.987 122.396 152.036 122.006C152.085 121.607 152.109 121.245 152.109 120.919Z" fill="#FDFDFD"/>
<path d="M140.623 115.146L138.303 118.991C138.206 118.665 138.079 118.299 137.925 117.892C137.77 117.485 137.579 117.107 137.351 116.757C137.123 116.399 136.851 116.102 136.533 115.866C136.216 115.622 135.85 115.5 135.435 115.5C135.052 115.5 134.718 115.597 134.434 115.792C134.157 115.988 133.921 116.244 133.726 116.562C133.53 116.871 133.368 117.225 133.237 117.624C133.115 118.014 133.018 118.413 132.944 118.82C132.879 119.219 132.834 119.605 132.81 119.979C132.786 120.346 132.773 120.663 132.773 120.932V128H128.635V113.9H130.222L131.895 117.184C132.122 116.655 132.383 116.171 132.676 115.731C132.969 115.284 133.306 114.901 133.689 114.584C134.071 114.258 134.503 114.006 134.983 113.827C135.471 113.648 136.021 113.559 136.631 113.559C136.948 113.559 137.302 113.587 137.693 113.644C138.083 113.693 138.466 113.782 138.84 113.913C139.215 114.035 139.561 114.197 139.878 114.401C140.195 114.604 140.444 114.853 140.623 115.146Z" fill="#FDFDFD"/>
<path d="M125.181 126.303C125.181 127.426 125.014 128.484 124.68 129.477C124.347 130.469 123.862 131.336 123.228 132.077C122.593 132.825 121.812 133.415 120.884 133.847C119.964 134.286 118.914 134.506 117.734 134.506C117.083 134.506 116.424 134.433 115.757 134.286C115.098 134.14 114.471 133.912 113.877 133.603C113.291 133.301 112.762 132.915 112.29 132.443C111.826 131.979 111.46 131.43 111.191 130.795L112.974 130.124C113.128 130.522 113.328 130.889 113.572 131.222C113.824 131.556 114.113 131.841 114.438 132.077C114.764 132.321 115.122 132.508 115.513 132.638C115.903 132.777 116.314 132.846 116.746 132.846C117.559 132.846 118.239 132.679 118.784 132.345C119.338 132.012 119.781 131.576 120.115 131.039C120.448 130.502 120.688 129.892 120.835 129.208C120.981 128.533 121.055 127.845 121.055 127.145V126.315C120.566 126.982 119.976 127.479 119.285 127.804C118.601 128.122 117.848 128.28 117.026 128.28C115.952 128.28 114.992 128.089 114.146 127.707C113.299 127.324 112.583 126.803 111.997 126.144C111.411 125.477 110.964 124.695 110.654 123.8C110.345 122.905 110.19 121.945 110.19 120.919C110.19 119.894 110.345 118.934 110.654 118.039C110.964 117.143 111.411 116.366 111.997 115.707C112.583 115.04 113.299 114.515 114.146 114.132C114.992 113.75 115.952 113.559 117.026 113.559C117.572 113.559 118.088 113.64 118.577 113.803C119.073 113.965 119.525 114.197 119.932 114.499C120.347 114.792 120.709 115.15 121.018 115.573C121.335 115.988 121.584 116.452 121.763 116.964L123.594 113.9H125.181V126.303ZM121.03 120.919C121.03 120.553 121.01 120.167 120.969 119.76C120.937 119.353 120.876 118.95 120.786 118.551C120.697 118.153 120.57 117.774 120.408 117.416C120.253 117.05 120.05 116.728 119.797 116.452C119.553 116.167 119.256 115.943 118.906 115.78C118.556 115.618 118.149 115.536 117.686 115.536C117.222 115.536 116.819 115.622 116.477 115.792C116.135 115.955 115.842 116.179 115.598 116.464C115.354 116.741 115.151 117.062 114.988 117.428C114.833 117.794 114.711 118.177 114.622 118.576C114.532 118.974 114.467 119.377 114.426 119.784C114.394 120.183 114.377 120.561 114.377 120.919C114.377 121.278 114.394 121.66 114.426 122.067C114.467 122.474 114.532 122.877 114.622 123.275C114.711 123.674 114.833 124.057 114.988 124.423C115.151 124.789 115.354 125.115 115.598 125.399C115.842 125.676 116.135 125.9 116.477 126.071C116.819 126.234 117.222 126.315 117.686 126.315C118.109 126.315 118.483 126.229 118.809 126.059C119.142 125.88 119.431 125.644 119.675 125.351C119.928 125.058 120.139 124.724 120.31 124.35C120.481 123.975 120.619 123.589 120.725 123.19C120.831 122.791 120.908 122.396 120.957 122.006C121.006 121.607 121.03 121.245 121.03 120.919Z" fill="#FDFDFD"/>
<path d="M107.529 128H103.403V126.315C102.915 126.982 102.325 127.479 101.633 127.804C100.95 128.122 100.197 128.28 99.375 128.28C98.3008 128.28 97.3405 128.089 96.4941 127.707C95.6478 127.324 94.9316 126.803 94.3457 126.144C93.7598 125.477 93.3122 124.695 93.0029 123.8C92.6937 122.905 92.5391 121.945 92.5391 120.919C92.5391 119.894 92.6937 118.934 93.0029 118.039C93.3122 117.143 93.7598 116.366 94.3457 115.707C94.9316 115.04 95.6478 114.515 96.4941 114.132C97.3405 113.75 98.3008 113.559 99.375 113.559C99.9202 113.559 100.437 113.64 100.925 113.803C101.422 113.965 101.873 114.197 102.28 114.499C102.695 114.792 103.057 115.15 103.367 115.573C103.684 115.988 103.932 116.452 104.111 116.964L105.942 113.9H107.529V128ZM103.379 120.919C103.379 120.553 103.359 120.167 103.318 119.76C103.285 119.353 103.224 118.95 103.135 118.551C103.045 118.153 102.919 117.774 102.756 117.416C102.602 117.05 102.398 116.728 102.146 116.452C101.902 116.167 101.605 115.943 101.255 115.78C100.905 115.618 100.498 115.536 100.034 115.536C99.5703 115.536 99.1675 115.622 98.8257 115.792C98.4839 115.955 98.1909 116.179 97.9468 116.464C97.7026 116.741 97.4992 117.062 97.3364 117.428C97.1818 117.794 97.0597 118.177 96.9702 118.576C96.8807 118.974 96.8156 119.377 96.7749 119.784C96.7424 120.183 96.7261 120.561 96.7261 120.919C96.7261 121.278 96.7424 121.66 96.7749 122.067C96.8156 122.474 96.8807 122.877 96.9702 123.275C97.0597 123.674 97.1818 124.057 97.3364 124.423C97.4992 124.789 97.7026 125.115 97.9468 125.399C98.1909 125.676 98.4839 125.9 98.8257 126.071C99.1675 126.234 99.5703 126.315 100.034 126.315C100.457 126.315 100.832 126.229 101.157 126.059C101.491 125.88 101.78 125.644 102.024 125.351C102.276 125.058 102.488 124.724 102.659 124.35C102.83 123.975 102.968 123.589 103.074 123.19C103.18 122.791 103.257 122.396 103.306 122.006C103.354 121.607 103.379 121.245 103.379 120.919Z" fill="#FDFDFD"/>
<path d="M87.6074 128H83.4692V115.537H80.9058V113.901H83.4692V108.713H87.6074V113.901H91.8799V115.537H87.6074V128Z" fill="#FDFDFD"/>
<path d="M79.6851 123.495C79.6851 124.114 79.5955 124.663 79.4165 125.143C79.2375 125.623 78.9933 126.042 78.6841 126.4C78.3748 126.75 78.0086 127.047 77.5854 127.292C77.1623 127.528 76.7065 127.719 76.2183 127.865C75.7381 128.012 75.2336 128.118 74.7046 128.183C74.1756 128.248 73.6507 128.28 73.1299 128.28C72.43 128.28 71.8115 128.236 71.2744 128.146C70.7373 128.056 70.2246 127.914 69.7363 127.719C69.248 127.515 68.7598 127.255 68.2715 126.938C67.7913 126.62 67.2542 126.234 66.6602 125.778L69.0649 123.812C69.2847 124.228 69.5736 124.606 69.9316 124.948C70.2979 125.281 70.6763 125.57 71.0669 125.814C71.4575 126.059 71.8359 126.246 72.2021 126.376C72.5684 126.506 72.8654 126.571 73.0933 126.571C73.2804 126.571 73.492 126.567 73.728 126.559C73.964 126.543 74.2041 126.518 74.4482 126.486C74.6924 126.445 74.9325 126.388 75.1685 126.315C75.4045 126.242 75.612 126.144 75.791 126.022C75.9782 125.892 76.1247 125.733 76.2305 125.546C76.3444 125.351 76.4014 125.119 76.4014 124.85C76.4014 124.573 76.3281 124.333 76.1816 124.13C76.0433 123.918 75.8602 123.735 75.6323 123.581C75.4045 123.426 75.144 123.296 74.8511 123.19C74.5581 123.084 74.2611 122.991 73.96 122.909C73.667 122.828 73.3822 122.759 73.1055 122.702C72.8288 122.637 72.5887 122.576 72.3853 122.519C72.0109 122.413 71.6162 122.307 71.2012 122.201C70.7861 122.087 70.3752 121.961 69.9683 121.823C69.5614 121.676 69.1707 121.505 68.7964 121.31C68.4302 121.115 68.1047 120.883 67.8198 120.614C67.5431 120.338 67.3193 120.016 67.1484 119.65C66.9857 119.276 66.9043 118.84 66.9043 118.344C66.9043 117.432 67.0833 116.671 67.4414 116.061C67.8076 115.443 68.2878 114.95 68.8818 114.584C69.4759 114.21 70.1514 113.945 70.9082 113.791C71.665 113.636 72.4341 113.559 73.2153 113.559C73.7524 113.559 74.318 113.616 74.9121 113.729C75.5062 113.835 76.084 113.998 76.6455 114.218C77.207 114.429 77.7319 114.69 78.2202 114.999C78.7085 115.308 79.1154 115.662 79.4409 116.061L77.0361 118.039C76.8571 117.55 76.6211 117.131 76.3281 116.781C76.0433 116.431 75.73 116.146 75.3882 115.927C75.0545 115.699 74.7087 115.532 74.3506 115.426C74.0007 115.32 73.6751 115.268 73.374 115.268C73.0811 115.268 72.7515 115.28 72.3853 115.304C72.019 115.329 71.6732 115.398 71.3477 115.512C71.0303 115.626 70.7576 115.801 70.5298 116.037C70.3101 116.264 70.2002 116.582 70.2002 116.989C70.2002 117.282 70.2653 117.534 70.3955 117.746C70.5339 117.949 70.7129 118.128 70.9326 118.283C71.1523 118.429 71.4006 118.555 71.6772 118.661C71.9621 118.759 72.251 118.848 72.5439 118.93C72.8369 119.003 73.1217 119.068 73.3984 119.125C73.6751 119.182 73.9233 119.243 74.1431 119.308C74.5174 119.414 74.9121 119.524 75.3271 119.638C75.7503 119.743 76.1654 119.87 76.5723 120.016C76.9792 120.154 77.3698 120.321 77.7441 120.517C78.1266 120.704 78.4603 120.936 78.7451 121.212C79.0299 121.489 79.2578 121.815 79.4287 122.189C79.5996 122.555 79.6851 122.991 79.6851 123.495Z" fill="#FDFDFD"/>
<path d="M64.8291 119.918C64.8291 120.871 64.7111 121.863 64.4751 122.897C64.2472 123.931 63.9258 124.944 63.5107 125.937C63.0957 126.929 62.5993 127.861 62.0215 128.732C61.4437 129.611 60.8089 130.368 60.1172 131.002L58.5669 130.16C58.7866 129.753 58.9941 129.298 59.1895 128.793C59.3848 128.288 59.5597 127.755 59.7144 127.194C59.8771 126.624 60.0195 126.038 60.1416 125.436C60.2718 124.834 60.3776 124.24 60.459 123.654C60.5485 123.06 60.6136 122.486 60.6543 121.933C60.7031 121.371 60.7275 120.85 60.7275 120.37C60.7275 120.053 60.7153 119.715 60.6909 119.357C60.6665 118.991 60.6136 118.629 60.5322 118.271C60.459 117.904 60.3573 117.554 60.2271 117.221C60.0968 116.887 59.9219 116.594 59.7021 116.342C59.4906 116.09 59.2301 115.886 58.9209 115.731C58.6198 115.577 58.2617 115.5 57.8467 115.5C57.4398 115.5 57.0776 115.593 56.7603 115.78C56.4429 115.959 56.1621 116.199 55.918 116.5C55.6738 116.793 55.4622 117.131 55.2832 117.514C55.1123 117.896 54.9699 118.291 54.856 118.698C54.7502 119.097 54.6729 119.491 54.624 119.882C54.5752 120.272 54.5508 120.622 54.5508 120.932V128H50.4126V113.9H51.9995L53.8916 117.184C54.1195 116.639 54.4043 116.142 54.7461 115.695C55.0879 115.247 55.4744 114.865 55.9058 114.547C56.3371 114.23 56.8132 113.986 57.334 113.815C57.863 113.644 58.4326 113.559 59.043 113.559C60.0195 113.559 60.87 113.717 61.5942 114.035C62.3185 114.352 62.9207 114.796 63.4009 115.365C63.881 115.927 64.2391 116.598 64.4751 117.379C64.7111 118.153 64.8291 118.999 64.8291 119.918Z" fill="#FDFDFD"/>
<path d="M46.8359 128H41.9897V110.422H46.8359V128Z" fill="#FDFDFD"/>
</svg>

<svg width="224" height="243" fill="none" xmlns="http://www.w3.org/2000/svg"><path d="M3.503 220.862l-.003-.157V109.461C3.5 51.01 51.917 3.5 111.798 3.5c59.882 0 108.299 47.51 108.299 105.961v111.245l-.003.156c-.173 9.68-8.426 17.7-18.857 17.7s-18.684-8.02-18.857-17.7l-.061-3.438h-6.883l-.061 3.438c-.173 9.68-8.426 17.7-18.857 17.7s-18.684-8.02-18.857-17.7l-.062-3.438h-6.882l-.062 3.438c-.173 9.68-8.426 17.7-18.857 17.7-10.43 0-18.683-8.02-18.856-17.7l-.062-3.438h-6.883l-.061 3.438c-.173 9.68-8.426 17.7-18.857 17.7-10.43 0-18.684-8.02-18.857-17.7l-.061-3.438h-6.883l-.061 3.438c-.173 9.68-8.426 17.7-18.857 17.7s-18.684-8.02-18.857-17.7z" fill="#7BB361" stroke="#FFB8C6" stroke-width="7"/><path d="M181.528 119.772c0 .968-.114 1.978-.341 3.027a17.95 17.95 0 01-.965 3.076 16.872 16.872 0 01-1.477 2.82 12.044 12.044 0 01-1.929 2.307l-1.55-.842c.236-.423.452-.899.647-1.428.195-.529.374-1.086.537-1.672.163-.586.305-1.189.427-1.807.123-.619.224-1.233.306-1.843a25.1 25.1 0 00.195-1.795c.041-.578.061-1.119.061-1.623 0-.285-.008-.594-.024-.928a8.51 8.51 0 00-.11-1.001 5.075 5.075 0 00-.232-.952 2.734 2.734 0 00-.44-.818 1.885 1.885 0 00-.683-.574c-.269-.146-.594-.219-.977-.219-.374 0-.696.101-.964.305a2.58 2.58 0 00-.672.769 4.58 4.58 0 00-.451 1.074c-.106.399-.187.802-.244 1.208-.057.399-.098.782-.122 1.148-.017.366-.025.675-.025.928V128h-4.114v-6.568c0-.285.004-.626.013-1.025.008-.407-.005-.83-.037-1.27a9.867 9.867 0 00-.159-1.306 4.12 4.12 0 00-.366-1.172 2.192 2.192 0 00-.671-.83c-.285-.22-.643-.329-1.075-.329-.366 0-.675.101-.927.305a2.574 2.574 0 00-.623.793c-.163.318-.293.68-.39 1.087-.09.398-.159.801-.208 1.208-.041.399-.065.781-.073 1.148-.008.358-.012.655-.012.891V128h-4.139v-14.1h1.587l1.514 3.284c.342-1.139.879-2.026 1.611-2.661.741-.643 1.721-.964 2.942-.964 1.099 0 2.01.227 2.735.683.724.456 1.293 1.196 1.709 2.222.236-.448.496-.851.781-1.209.293-.358.614-.663.964-.915a4.101 4.101 0 011.184-.574 4.674 4.674 0 011.428-.207c.961 0 1.779.158 2.454.476.684.309 1.241.74 1.672 1.294.432.553.745 1.212.94 1.977a9.82 9.82 0 01.293 2.466zM156.26 128h-4.126v-1.685c-.488.667-1.078 1.164-1.77 1.489-.684.318-1.437.476-2.259.476-1.074 0-2.034-.191-2.88-.573a6.317 6.317 0 01-2.149-1.563 6.96 6.96 0 01-1.343-2.344 8.767 8.767 0 01-.463-2.881c0-1.025.154-1.985.463-2.88a6.818 6.818 0 011.343-2.332 6.244 6.244 0 012.149-1.575c.846-.382 1.806-.573 2.88-.573a4.868 4.868 0 012.906.94c.415.293.777.651 1.086 1.074.318.415.566.879.745 1.391l1.831-3.064h1.587V128zm-4.151-7.081c0-.366-.02-.752-.061-1.159a8.524 8.524 0 00-.183-1.209 5.773 5.773 0 00-.378-1.135 3.34 3.34 0 00-.611-.964 2.605 2.605 0 00-.891-.672c-.35-.162-.756-.244-1.22-.244-.464 0-.867.086-1.209.256a2.638 2.638 0 00-.879.672 3.759 3.759 0 00-.61.964 6.651 6.651 0 00-.366 1.148c-.09.398-.155.801-.196 1.208a14.22 14.22 0 00-.048 1.135c0 .359.016.741.048 1.148.041.407.106.81.196 1.208.089.399.211.782.366 1.148.163.366.366.692.61.976.244.277.537.501.879.672.342.163.745.244 1.209.244.423 0 .797-.086 1.123-.256.333-.179.622-.415.866-.708.253-.293.464-.627.635-1.001.171-.375.309-.761.415-1.16a8.96 8.96 0 00.305-2.271zm-11.486-5.773l-2.32 3.845a16.282 16.282 0 00-.378-1.099 5.95 5.95 0 00-.574-1.135 3.304 3.304 0 00-.818-.891 1.75 1.75 0 00-1.098-.366c-.383 0-.717.097-1.001.292a2.577 2.577 0 00-.708.77 4.725 4.725 0 00-.489 1.062c-.122.39-.219.789-.293 1.196-.065.399-.11.785-.134 1.159-.024.367-.037.684-.037.953V128h-4.138v-14.1h1.587l1.673 3.284a9.06 9.06 0 01.781-1.453c.293-.447.63-.83 1.013-1.147a4.28 4.28 0 011.294-.757 4.764 4.764 0 011.648-.268c.317 0 .671.028 1.062.085.39.049.773.138 1.147.269.375.122.721.284 1.038.488.317.203.566.452.745.745zm-15.442 11.157a9.891 9.891 0 01-.501 3.174 7.744 7.744 0 01-1.452 2.6 6.787 6.787 0 01-2.344 1.77c-.92.439-1.97.659-3.15.659-.651 0-1.31-.073-1.977-.22a7.636 7.636 0 01-1.88-.683 6.336 6.336 0 01-1.587-1.16 5.134 5.134 0 01-1.099-1.648l1.783-.671c.154.398.354.765.598 1.098.252.334.541.619.866.855.326.244.684.431 1.075.561.39.139.801.208 1.233.208.813 0 1.493-.167 2.038-.501a3.924 3.924 0 001.331-1.306 5.726 5.726 0 00.72-1.831c.146-.675.22-1.363.22-2.063v-.83c-.489.667-1.079 1.164-1.77 1.489-.684.318-1.437.476-2.259.476-1.074 0-2.034-.191-2.88-.573a6.317 6.317 0 01-2.149-1.563 6.96 6.96 0 01-1.343-2.344 8.767 8.767 0 01-.464-2.881c0-1.025.155-1.985.464-2.88a6.818 6.818 0 011.343-2.332 6.244 6.244 0 012.149-1.575c.846-.382 1.806-.573 2.88-.573a4.868 4.868 0 012.906.94c.415.293.777.651 1.086 1.074.317.415.566.879.745 1.391l1.831-3.064h1.587v12.403zm-4.151-5.384c0-.366-.02-.752-.061-1.159a8.524 8.524 0 00-.183-1.209 5.84 5.84 0 00-.378-1.135 3.34 3.34 0 00-.611-.964 2.605 2.605 0 00-.891-.672 2.878 2.878 0 00-1.22-.244c-.464 0-.867.086-1.209.256a2.638 2.638 0 00-.879.672 3.759 3.759 0 00-.61.964 6.651 6.651 0 00-.366 1.148c-.09.398-.155.801-.196 1.208-.032.399-.049.777-.049 1.135 0 .359.017.741.049 1.148.041.407.106.81.196 1.208.089.399.211.782.366 1.148.163.366.366.692.61.976.244.277.537.501.879.672.342.163.745.244 1.209.244.423 0 .797-.086 1.123-.256.333-.179.622-.415.866-.708.253-.293.464-.627.635-1.001.171-.375.309-.761.415-1.16a8.96 8.96 0 00.305-2.271zM107.529 128h-4.126v-1.685c-.488.667-1.078 1.164-1.77 1.489-.683.318-1.436.476-2.258.476-1.074 0-2.034-.191-2.88-.573a6.32 6.32 0 01-2.15-1.563 6.949 6.949 0 01-1.342-2.344 8.762 8.762 0 01-.464-2.881 8.76 8.76 0 01.464-2.88 6.808 6.808 0 011.343-2.332 6.247 6.247 0 012.148-1.575c.847-.382 1.807-.573 2.881-.573a4.86 4.86 0 011.55.244 4.7 4.7 0 011.355.696c.415.293.777.651 1.087 1.074.317.415.565.879.744 1.391l1.831-3.064h1.587V128zm-4.15-7.081c0-.366-.02-.752-.061-1.159a8.821 8.821 0 00-.183-1.209 5.842 5.842 0 00-.379-1.135 3.337 3.337 0 00-.61-.964 2.605 2.605 0 00-.891-.672c-.35-.162-.757-.244-1.221-.244-.464 0-.867.086-1.208.256a2.64 2.64 0 00-.88.672 3.749 3.749 0 00-.61.964 6.73 6.73 0 00-.366 1.148c-.09.398-.154.801-.195 1.208-.033.399-.049.777-.049 1.135 0 .359.016.741.049 1.148.04.407.106.81.195 1.208.09.399.212.782.366 1.148.163.366.367.692.61.976.245.277.538.501.88.672.342.163.744.244 1.208.244a2.39 2.39 0 001.123-.256c.334-.179.623-.415.867-.708a4.21 4.21 0 00.635-1.001c.171-.375.309-.761.415-1.16a8.96 8.96 0 00.305-2.271zM87.607 128H83.47v-12.463h-2.563v-1.636h2.563v-5.188h4.138v5.188h4.273v1.636h-4.273V128zm-7.922-4.505c0 .619-.09 1.168-.269 1.648a4.07 4.07 0 01-.732 1.257c-.31.35-.675.647-1.099.892a6.79 6.79 0 01-1.367.573c-.48.147-.984.253-1.513.318a12.9 12.9 0 01-1.575.097c-.7 0-1.319-.044-1.856-.134a7.457 7.457 0 01-1.538-.427 9.225 9.225 0 01-1.465-.781 28.759 28.759 0 01-1.61-1.16l2.404-1.966c.22.416.509.794.867 1.136a7.92 7.92 0 001.135.866c.39.245.769.432 1.135.562.366.13.663.195.891.195.187 0 .399-.004.635-.012.236-.016.476-.041.72-.073.244-.041.485-.098.72-.171a2.31 2.31 0 00.623-.293 1.356 1.356 0 00.61-1.172c0-.277-.073-.517-.22-.72a1.945 1.945 0 00-.549-.549 3.497 3.497 0 00-.78-.391 13.222 13.222 0 00-1.746-.488 17.778 17.778 0 01-.72-.183c-.375-.106-.77-.212-1.185-.318-.415-.114-.826-.24-1.233-.378a9.573 9.573 0 01-1.172-.513 4.48 4.48 0 01-.976-.696 3.353 3.353 0 01-.672-.964c-.162-.374-.244-.81-.244-1.306 0-.912.18-1.673.537-2.283a4.248 4.248 0 011.44-1.477 6.021 6.021 0 012.027-.793 11.469 11.469 0 012.307-.232c.537 0 1.103.057 1.697.17a9.142 9.142 0 011.733.489 8.581 8.581 0 011.575.781c.489.309.895.663 1.22 1.062l-2.404 1.978a4.173 4.173 0 00-.708-1.258 3.996 3.996 0 00-.94-.854 3.694 3.694 0 00-1.037-.501 3.379 3.379 0 00-.977-.158c-.293 0-.623.012-.989.036a3.935 3.935 0 00-1.037.208 2.11 2.11 0 00-.818.525c-.22.227-.33.545-.33.952 0 .293.065.545.195.757.139.203.318.382.538.537.22.146.468.272.744.378.285.098.574.187.867.269.293.073.578.138.854.195.277.057.525.118.745.183.374.106.77.216 1.184.33.423.105.838.232 1.245.378a8.18 8.18 0 011.172.501 3.86 3.86 0 011.001.695c.285.277.513.603.684.977.17.366.256.802.256 1.306zm-14.855-3.577c0 .953-.119 1.945-.355 2.979a17.803 17.803 0 01-.964 3.04 16.705 16.705 0 01-1.49 2.795 11.994 11.994 0 01-1.904 2.27l-1.55-.842c.22-.407.427-.862.623-1.367.195-.505.37-1.038.524-1.599.163-.57.306-1.156.428-1.758.13-.602.236-1.196.317-1.782.09-.594.155-1.168.195-1.721a18.15 18.15 0 00.073-1.563c0-.317-.012-.655-.036-1.013a6.987 6.987 0 00-.159-1.086 6.217 6.217 0 00-.305-1.05 2.96 2.96 0 00-.525-.879 2.425 2.425 0 00-.781-.611c-.301-.154-.66-.231-1.074-.231a2.1 2.1 0 00-1.087.28 2.942 2.942 0 00-.842.72 4.647 4.647 0 00-.635 1.014c-.17.382-.313.777-.427 1.184a8.945 8.945 0 00-.232 1.184 8.5 8.5 0 00-.073 1.05V128h-4.138v-14.1H52l1.892 3.284a6.684 6.684 0 01.854-1.489 5.74 5.74 0 011.16-1.148 5.06 5.06 0 011.428-.732 5.525 5.525 0 011.709-.256c.977 0 1.827.158 2.551.476a4.89 4.89 0 011.807 1.33c.48.562.838 1.233 1.074 2.014.236.774.354 1.62.354 2.539zM46.836 128H41.99v-17.578h4.846V128z" fill="#FDFDFD"/></svg>
